img/projects/diversitytickets.svg

<svg width="50" height="65.863" viewBox="0 0 50 65.863" xmlns="http://www.w3.org/2000/svg"><defs><style>.cls-1{fill:#e6e7e8;}.cls-2{fill:#606060;}.cls-3{fill:#fff;}.cls-4{fill:#66be66;}.cls-5{fill:#09a386;}.cls-6{fill:#27aae1;}.cls-7{fill:#729b61;}.cls-8{fill:#f6ba40;}.cls-9{fill:#e06f33;}.cls-10{fill:#e85754;}.cls-11{fill:#826545;}</style></defs><title>DT-logo</title><g data-name="Ticket Outline"><path class="cls-1" transform="translate(0)" d="M27.094,62.922a1.694,1.694,0,0,1,2.143.982l1.834-.651a1.692,1.692,0,0,1,3.187-1.131l1.834-.651a1.692,1.692,0,0,1,3.187-1.131l1.834-.651A1.692,1.692,0,0,1,44.3,58.56l1.3-.46a5.424,5.424,0,0,1,4.064-6.458L32.468,3.182a5.491,5.491,0,0,1-.55.231A5.437,5.437,0,0,1,25.069.34L23.8,0.791a1.687,1.687,0,0,1-3.171,1.125l-1.85.656A1.687,1.687,0,0,1,15.605,3.7l-1.85.656a1.687,1.687,0,0,1-3.171,1.125l-1.85.656A1.687,1.687,0,0,1,5.563,7.26l-1.352.479a5.437,5.437,0,0,1-3.382,6.7C0.667,14.5.5,14.547,0.34,14.588L17.526,63.034c0.153-.071.31-0.137,0.472-0.195a5.439,5.439,0,0,1,6.676,2.684l1.376-.488A1.694,1.694,0,0,1,27.094,62.922Z"/><path class="cls-2" transform="translate(0)" d="M17.206,63.147L0.02,14.7a0.34,0.34,0,0,1,.237-0.443c0.171-.043.321-0.088,0.459-0.137a5.089,5.089,0,0,0,3.17-6.283A0.34,0.34,0,0,1,4.1,7.419l1.352-.479a0.34,0.34,0,0,1,.424.181,1.348,1.348,0,0,0,2.533-.9,0.34,0.34,0,0,1,.215-0.407l1.85-.656a0.34,0.34,0,0,1,.424.181,1.348,1.348,0,0,0,2.533-.9,0.34,0.34,0,0,1,.215-0.407l1.85-.656a0.34,0.34,0,0,1,.424.181,1.348,1.348,0,0,0,2.533-.9,0.34,0.34,0,0,1,.215-0.407l1.85-.656a0.34,0.34,0,0,1,.424.181,1.348,1.348,0,0,0,2.533-.9A0.34,0.34,0,0,1,23.684.471l1.271-.451a0.34,0.34,0,0,1,.429.192,5.089,5.089,0,0,0,6.421,2.881,5.121,5.121,0,0,0,.515-0.217,0.34,0.34,0,0,1,.468.193L49.98,51.529a0.34,0.34,0,0,1-.242.445,5.083,5.083,0,0,0-3.81,6.053,0.34,0.34,0,0,1-.218.394l-1.3.46a0.34,0.34,0,0,1-.43-0.2,1.352,1.352,0,0,0-2.547.9,0.34,0.34,0,0,1-.21.424l-1.834.651a0.34,0.34,0,0,1-.43-0.2,1.352,1.352,0,0,0-2.547.9,0.34,0.34,0,0,1-.21.424l-1.834.65a0.34,0.34,0,0,1-.43-0.2,1.352,1.352,0,0,0-2.547.9,0.34,0.34,0,0,1-.21.424l-1.834.65a0.34,0.34,0,0,1-.43-0.2,1.352,1.352,0,0,0-2.547.9,0.34,0.34,0,0,1-.21.424l-1.375.488a0.34,0.34,0,0,1-.418-0.168,5.1,5.1,0,0,0-6.258-2.516c-0.138.049-.283,0.109-0.443,0.183A0.34,0.34,0,0,1,17.206,63.147ZM0.782,14.817L17.725,62.578c0.054-.021.107-0.041,0.159-0.06A5.786,5.786,0,0,1,24.836,65.1l0.814-.289a2.032,2.032,0,0,1,3.758-1.333l1.263-.448A2.032,2.032,0,0,1,34.43,61.7l1.263-.448a2.032,2.032,0,0,1,3.759-1.333l1.262-.448a2.032,2.032,0,0,1,3.759-1.333l0.734-.26a5.785,5.785,0,0,1,3.767-6.388c0.08-.028.16-0.055,0.242-0.079L32.271,3.642c-0.08.033-.159,0.063-0.238,0.091A5.768,5.768,0,0,1,24.885.766l-0.7.249a2.027,2.027,0,0,1-3.717,1.318l-1.3.463a2.027,2.027,0,0,1-3.717,1.318l-1.3.463A2.027,2.027,0,0,1,10.425,5.9l-1.3.463A2.027,2.027,0,0,1,5.4,7.677l-0.781.277a5.768,5.768,0,0,1-3.68,6.808C0.891,14.781.837,14.8,0.782,14.817Z"/></g><g data-name="Ticket White BG"><rect class="cls-3" transform="translate(-10.171 10.489) rotate(-19.532)" x="12.236" y="13.251" width="26.299" height="43.077" rx=".597" ry=".597"/><path class="cls-2" transform="translate(0)" d="M19.721,59.169L5.623,19.43a0.8,0.8,0,0,1,.484-1.016L30.035,9.926a0.8,0.8,0,0,1,1.016.484l14.1,39.739a0.8,0.8,0,0,1-.484,1.016L20.736,59.653A0.8,0.8,0,0,1,19.721,59.169ZM30,10.661l-23.4,8.3a0.4,0.4,0,0,0-.242.508L20.267,58.676a0.4,0.4,0,0,0,.508.242l23.4-8.3a0.4,0.4,0,0,0,.242-0.508L30.5,10.9A0.4,0.4,0,0,0,30,10.661Z"/></g><g data-name="Color Fills"><path class="cls-4" transform="translate(0)" d="M25.433,34.812c-0.012,0-.024,0-0.036.009s-0.022.012-.034,0.016a5,5,0,0,1-3.015,6.331c0,0.012,0,.024.009,0.036a5,5,0,1,0,9.423-3.343c0-.012-0.012-0.022-0.016-0.034A5,5,0,0,1,25.433,34.812Z"/><path class="cls-5" transform="translate(0)" d="m25.363 34.837a5 5 0 0 0-3.015 6.331 5 5 0 0 0 3.015-6.331z"/><path class="cls-6" transform="translate(0)" d="M25.363,34.837c0-.012,0-0.024-0.009-0.036s-0.012-.022-0.016-0.034a5,5,0,0,1-6.331-3.015c-0.012,0-.024,0-0.036.009a5,5,0,1,0,3.343,9.423c0.012,0,.022-0.012.034-0.016A5,5,0,0,1,25.363,34.837Z"/><path class="cls-7" transform="translate(0)" d="m25.338 34.767a5 5 0 0 0-6.331-3.015 5 5 0 0 0 6.331 3.015z"/><path class="cls-8" transform="translate(0)" d="M25.338,34.767c0.012,0,.024,0,0.036-0.009s0.022-.012.034-0.016a5,5,0,0,1,3.015-6.331c0-.012,0-0.024-0.009-0.036a5,5,0,0,0-9.423,3.343c0,0.012.012,0.022,0.016,0.034A5,5,0,0,1,25.338,34.767Z"/><path class="cls-9" transform="translate(0)" d="m25.408 34.742a5 5 0 0 0 3.015-6.331 5 5 0 0 0-3.015 6.331z"/><path class="cls-10" transform="translate(0)" d="M34.841,31.435a5,5,0,0,0-6.383-3.04c-0.012,0-.022.012-0.034,0.016a5,5,0,0,1-3.015,6.331c0,0.012,0,.024.009,0.036s0.012,0.022.016,0.034a5,5,0,0,1,6.331,3.015c0.012,0,.024,0,0.036-0.009A5,5,0,0,0,34.841,31.435Z"/><path class="cls-11" transform="translate(0)" d="m25.433 34.812a5 5 0 0 0 6.331 3.015 5 5 0 0 0-6.331-3.015z"/></g><g data-name="Circle Strokes"><g data-name="Red Stroke"><path class="cls-2" transform="translate(0)" d="m25.1 34.892a5.339 5.339 0 1 1 6.818 3.247 5.346 5.346 0 0 1-6.818-3.247zm9.423-3.343a4.659 4.659 0 1 0-2.836 5.951 4.664 4.664 0 0 0 2.833-5.951z"/></g><g data-name="Blue Stroke"><path class="cls-2" transform="translate(0)" d="m15.61 38.257a5.339 5.339 0 1 1 6.817 3.243 5.345 5.345 0 0 1-6.817-3.243zm9.423-3.343a4.659 4.659 0 1 0-2.833 5.949 4.665 4.665 0 0 0 2.833-5.949z"/></g><g data-name="Green Stroke"><path class="cls-2" transform="translate(0)" d="m22.036 41.318a5.339 5.339 0 1 1 6.817 3.247 5.345 5.345 0 0 1-6.817-3.247zm9.423-3.343a4.659 4.659 0 1 0-2.833 5.949 4.664 4.664 0 0 0 2.833-5.949z"/></g><g data-name="Yellow Stroke"><path class="cls-2" transform="translate(0)" d="m18.671 31.831a5.339 5.339 0 1 1 6.817 3.247 5.345 5.345 0 0 1-6.817-3.247zm9.423-3.343a4.659 4.659 0 1 0-2.833 5.949 4.664 4.664 0 0 0 2.833-5.949z"/></g></g></svg>

<svg id="Logo" xmlns="http://www.w3.org/2000/svg" width="50" height="65.863" viewBox="0 0 50 65.863"><defs><style>.cls-1{fill:#e6e7e8;}.cls-2{fill:#606060;}.cls-3{fill:#fff;}.cls-4{fill:#66be66;}.cls-5{fill:#09a386;}.cls-6{fill:#27aae1;}.cls-7{fill:#729b61;}.cls-8{fill:#f6ba40;}.cls-9{fill:#e06f33;}.cls-10{fill:#e85754;}.cls-11{fill:#826545;}</style></defs><title>DT-logo</title><g id="Ticket_Outline" data-name="Ticket Outline"><path class="cls-1" d="M27.094,62.922a1.694,1.694,0,0,1,2.143.982l1.834-.651a1.692,1.692,0,0,1,3.187-1.131l1.834-.651a1.692,1.692,0,0,1,3.187-1.131l1.834-.651A1.692,1.692,0,0,1,44.3,58.56l1.3-.46a5.424,5.424,0,0,1,4.064-6.458L32.468,3.182a5.491,5.491,0,0,1-.55.231A5.437,5.437,0,0,1,25.069.34L23.8,0.791a1.687,1.687,0,0,1-3.171,1.125l-1.85.656A1.687,1.687,0,0,1,15.605,3.7l-1.85.656a1.687,1.687,0,0,1-3.171,1.125l-1.85.656A1.687,1.687,0,0,1,5.563,7.26l-1.352.479a5.437,5.437,0,0,1-3.382,6.7C0.667,14.5.5,14.547,0.34,14.588L17.526,63.034c0.153-.071.31-0.137,0.472-0.195a5.439,5.439,0,0,1,6.676,2.684l1.376-.488A1.694,1.694,0,0,1,27.094,62.922Z" transform="translate(0 0)"/><path class="cls-2" d="M17.206,63.147L0.02,14.7a0.34,0.34,0,0,1,.237-0.443c0.171-.043.321-0.088,0.459-0.137a5.089,5.089,0,0,0,3.17-6.283A0.34,0.34,0,0,1,4.1,7.419l1.352-.479a0.34,0.34,0,0,1,.424.181,1.348,1.348,0,0,0,2.533-.9,0.34,0.34,0,0,1,.215-0.407l1.85-.656a0.34,0.34,0,0,1,.424.181,1.348,1.348,0,0,0,2.533-.9,0.34,0.34,0,0,1,.215-0.407l1.85-.656a0.34,0.34,0,0,1,.424.181,1.348,1.348,0,0,0,2.533-.9,0.34,0.34,0,0,1,.215-0.407l1.85-.656a0.34,0.34,0,0,1,.424.181,1.348,1.348,0,0,0,2.533-.9A0.34,0.34,0,0,1,23.684.471l1.271-.451a0.34,0.34,0,0,1,.429.192,5.089,5.089,0,0,0,6.421,2.881,5.121,5.121,0,0,0,.515-0.217,0.34,0.34,0,0,1,.468.193L49.98,51.529a0.34,0.34,0,0,1-.242.445,5.083,5.083,0,0,0-3.81,6.053,0.34,0.34,0,0,1-.218.394l-1.3.46a0.34,0.34,0,0,1-.43-0.2,1.352,1.352,0,0,0-2.547.9,0.34,0.34,0,0,1-.21.424l-1.834.651a0.34,0.34,0,0,1-.43-0.2,1.352,1.352,0,0,0-2.547.9,0.34,0.34,0,0,1-.21.424l-1.834.65a0.34,0.34,0,0,1-.43-0.2,1.352,1.352,0,0,0-2.547.9,0.34,0.34,0,0,1-.21.424l-1.834.65a0.34,0.34,0,0,1-.43-0.2,1.352,1.352,0,0,0-2.547.9,0.34,0.34,0,0,1-.21.424l-1.375.488a0.34,0.34,0,0,1-.418-0.168,5.1,5.1,0,0,0-6.258-2.516c-0.138.049-.283,0.109-0.443,0.183A0.34,0.34,0,0,1,17.206,63.147ZM0.782,14.817L17.725,62.578c0.054-.021.107-0.041,0.159-0.06A5.786,5.786,0,0,1,24.836,65.1l0.814-.289a2.032,2.032,0,0,1,3.758-1.333l1.263-.448A2.032,2.032,0,0,1,34.43,61.7l1.263-.448a2.032,2.032,0,0,1,3.759-1.333l1.262-.448a2.032,2.032,0,0,1,3.759-1.333l0.734-.26a5.785,5.785,0,0,1,3.767-6.388c0.08-.028.16-0.055,0.242-0.079L32.271,3.642c-0.08.033-.159,0.063-0.238,0.091A5.768,5.768,0,0,1,24.885.766l-0.7.249a2.027,2.027,0,0,1-3.717,1.318l-1.3.463a2.027,2.027,0,0,1-3.717,1.318l-1.3.463A2.027,2.027,0,0,1,10.425,5.9l-1.3.463A2.027,2.027,0,0,1,5.4,7.677l-0.781.277a5.768,5.768,0,0,1-3.68,6.808C0.891,14.781.837,14.8,0.782,14.817Z" transform="translate(0 0)"/></g><g id="Ticket_White_BG" data-name="Ticket White BG"><rect class="cls-3" x="12.236" y="13.251" width="26.299" height="43.077" rx="0.597" ry="0.597" transform="translate(-10.171 10.489) rotate(-19.532)"/><path class="cls-2" d="M19.721,59.169L5.623,19.43a0.8,0.8,0,0,1,.484-1.016L30.035,9.926a0.8,0.8,0,0,1,1.016.484l14.1,39.739a0.8,0.8,0,0,1-.484,1.016L20.736,59.653A0.8,0.8,0,0,1,19.721,59.169ZM30,10.661l-23.4,8.3a0.4,0.4,0,0,0-.242.508L20.267,58.676a0.4,0.4,0,0,0,.508.242l23.4-8.3a0.4,0.4,0,0,0,.242-0.508L30.5,10.9A0.4,0.4,0,0,0,30,10.661Z" transform="translate(0 0)"/></g><g id="Color_Fills" data-name="Color Fills"><path id="Green" class="cls-4" d="M25.433,34.812c-0.012,0-.024,0-0.036.009s-0.022.012-.034,0.016a5,5,0,0,1-3.015,6.331c0,0.012,0,.024.009,0.036a5,5,0,1,0,9.423-3.343c0-.012-0.012-0.022-0.016-0.034A5,5,0,0,1,25.433,34.812Z" transform="translate(0 0)"/><path id="Teal" class="cls-5" d="M25.363,34.837a5,5,0,0,0-3.015,6.331A5,5,0,0,0,25.363,34.837Z" transform="translate(0 0)"/><path id="Bue" class="cls-6" d="M25.363,34.837c0-.012,0-0.024-0.009-0.036s-0.012-.022-0.016-0.034a5,5,0,0,1-6.331-3.015c-0.012,0-.024,0-0.036.009a5,5,0,1,0,3.343,9.423c0.012,0,.022-0.012.034-0.016A5,5,0,0,1,25.363,34.837Z" transform="translate(0 0)"/><path id="Sage" class="cls-7" d="M25.338,34.767a5,5,0,0,0-6.331-3.015A5,5,0,0,0,25.338,34.767Z" transform="translate(0 0)"/><path id="Yellow" class="cls-8" d="M25.338,34.767c0.012,0,.024,0,0.036-0.009s0.022-.012.034-0.016a5,5,0,0,1,3.015-6.331c0-.012,0-0.024-0.009-0.036a5,5,0,0,0-9.423,3.343c0,0.012.012,0.022,0.016,0.034A5,5,0,0,1,25.338,34.767Z" transform="translate(0 0)"/><path id="Orange" class="cls-9" d="M25.408,34.742a5,5,0,0,0,3.015-6.331A5,5,0,0,0,25.408,34.742Z" transform="translate(0 0)"/><path id="Red" class="cls-10" d="M34.841,31.435a5,5,0,0,0-6.383-3.04c-0.012,0-.022.012-0.034,0.016a5,5,0,0,1-3.015,6.331c0,0.012,0,.024.009,0.036s0.012,0.022.016,0.034a5,5,0,0,1,6.331,3.015c0.012,0,.024,0,0.036-0.009A5,5,0,0,0,34.841,31.435Z" transform="translate(0 0)"/><path id="Brown" class="cls-11" d="M25.433,34.812a5,5,0,0,0,6.331,3.015A5,5,0,0,0,25.433,34.812Z" transform="translate(0 0)"/></g><g id="Circle_Strokes" data-name="Circle Strokes"><g id="Red_Stroke" data-name="Red Stroke"><path class="cls-2" d="M25.1,34.892a5.339,5.339,0,1,1,6.818,3.247A5.346,5.346,0,0,1,25.1,34.892Zm9.423-3.343A4.659,4.659,0,1,0,31.687,37.5,4.664,4.664,0,0,0,34.52,31.549Z" transform="translate(0 0)"/></g><g id="Blue_Stroke" data-name="Blue Stroke"><path class="cls-2" d="M15.61,38.257A5.339,5.339,0,1,1,22.427,41.5,5.345,5.345,0,0,1,15.61,38.257Zm9.423-3.343A4.659,4.659,0,1,0,22.2,40.863,4.665,4.665,0,0,0,25.033,34.914Z" transform="translate(0 0)"/></g><g id="Green_Stroke" data-name="Green Stroke"><path class="cls-2" d="M22.036,41.318a5.339,5.339,0,1,1,6.817,3.247A5.345,5.345,0,0,1,22.036,41.318Zm9.423-3.343a4.659,4.659,0,1,0-2.833,5.949A4.664,4.664,0,0,0,31.459,37.975Z" transform="translate(0 0)"/></g><g id="Yellow_Stroke" data-name="Yellow Stroke"><path class="cls-2" d="M18.671,31.831a5.339,5.339,0,1,1,6.817,3.247A5.345,5.345,0,0,1,18.671,31.831Zm9.423-3.343a4.659,4.659,0,1,0-2.833,5.949A4.664,4.664,0,0,0,28.094,28.488Z" transform="translate(0 0)"/></g></g></svg>
